!!!COM: Beethoven, Ludwig van
!!!CDT: 1770///-1827///
!!!ODT: 1798///-1800///
!!!OTL: String Quartet No. 5 in A Major, Op. 18, No. 5
!!!OPS: Op. 18
!!!ONM: No. 5
!!!OMV: Mvmt. 3
!!!OMD: Andante cantabile
!!!PDT: 1801///
!!!PPP: Vienna
!!!PPR: C. Haslinger qm Tobias
!!!ODE: Dem F&uuml;rsten von Lobkowitz gewidmet
!!!MPD: 1798///-1800///
**kern	**dynam	**kern	**dynam	**kern	**dynam	**kern	**dynam
*staff4	*staff4	*staff3	*staff3	*staff2	*staff2	*staff1	*staff1
*Icello	*Icello	*Iviola	*Iviola	*Ivioln	*Ivioln	*Ivioln	*Ivioln
*>[A,A,B,B,C,C,D,D,E,E,F,F,G,H,H,I,I1,I,I2,J,J,K,K,L,L1,L,L2,M,M1,M,M2]	*>[A,A,B,B,C,C,D,D,E,E,F,F,G,H,H,I,I1,I,I2,J,J,K,K,L,L1,L,L2,M,M1,M,M2]	*>[A,A,B,B,C,C,D,D,E,E,F,F,G,H,H,I,I1,I,I2,J,J,K,K,L,L1,L,L2,M,M1,M,M2]	*>[A,A,B,B,C,C,D,D,E,E,F,F,G,H,H,I,I1,I,I2,J,J,K,K,L,L1,L,L2,M,M1,M,M2]	*>[A,A,B,B,C,C,D,D,E,E,F,F,G,H,H,I,I1,I,I2,J,J,K,K,L,L1,L,L2,M,M1,M,M2]	*>[A,A,B,B,C,C,D,D,E,E,F,F,G,H,H,I,I1,I,I2,J,J,K,K,L,L1,L,L2,M,M1,M,M2]	*>[A,A,B,B,C,C,D,D,E,E,F,F,G,H,H,I,I1,I,I2,J,J,K,K,L,L1,L,L2,M,M1,M,M2]	*>[A,A,B,B,C,C,D,D,E,E,F,F,G,H,H,I,I1,I,I2,J,J,K,K,L,L1,L,L2,M,M1,M,M2]
*>norep[A,B,C,D,E,F,G,H,I,I2,J,K,L,L2,M,M2]	*>norep[A,B,C,D,E,F,G,H,I,I2,J,K,L,L2,M,M2]	*>norep[A,B,C,D,E,F,G,H,I,I2,J,K,L,L2,M,M2]	*>norep[A,B,C,D,E,F,G,H,I,I2,J,K,L,L2,M,M2]	*>norep[A,B,C,D,E,F,G,H,I,I2,J,K,L,L2,M,M2]	*>norep[A,B,C,D,E,F,G,H,I,I2,J,K,L,L2,M,M2]	*>norep[A,B,C,D,E,F,G,H,I,I2,J,K,L,L2,M,M2]	*>norep[A,B,C,D,E,F,G,H,I,I2,J,K,L,L2,M,M2]
*>A	*>A	*>A	*>A	*>A	*>A	*>A	*>A
*clefF4	*clefF4	*clefC3	*clefC3	*clefG2	*clefG2	*clefG2	*clefG2
*k[f#c#]	*k[f#c#]	*k[f#c#]	*k[f#c#]	*k[f#c#]	*k[f#c#]	*k[f#c#]	*k[f#c#]
*D:	*D:	*D:	*D:	*D:	*D:	*D:	*D:
*M2/4	*M2/4	*M2/4	*M2/4	*M2/4	*M2/4	*M2/4	*M2/4
*MM54	*MM54	*MM54	*MM54	*MM54	*MM54	*MM54	*MM54
8r	.	8r	.	8r	.	8a/	p
=1	=1	=1	=1	=1	=1	=1	=1
2D\	p	[2A/	p	4a/	p	4ff#\	.
.	.	.	.	8g/L	.	(8ee\L	.
.	.	.	.	8f#/J	.	8dd\J)	.
=2	=2	=2	=2	=2	=2	=2	=2
2AA/	.	4.A/]	.	8e/L	.	(8cc#\L	.
.	.	.	.	8d/J	.	8b\J)	.
.	.	.	.	[4c#/	.	[4a/	.
.	.	16G/LL	.	.	.	.	.
.	.	16F#/JJ	.	.	.	.	.
=3	=3	=3	=3	=3	=3	=3	=3
2AA/	.	16G/LL	.	8c#/L]	.	8a/L]	.
.	.	16E/JJ	.	.	.	.	.
.	.	[4.A/	.	8c#/	.	(8a/	.
.	.	.	.	8d/	.	8b/	.
.	.	.	.	8e/J	.	8cc#/J)	.
=4	=4	=4	=4	=4	=4	=4	=4
2D\	.	4.A/]	.	8f#/L	.	(8dd\L	.
.	.	.	.	8g/J	.	8ee\J)	.
.	.	.	.	4a/	.	4ff#\	.
.	.	16B/LL	.	.	.	.	.
.	.	16c#/JJ	.	.	.	.	.
=5	=5	=5	=5	=5	=5	=5	=5
2D\	.	8d\	.	4a/	.	4ff#\	.
.	.	[4.A/	.	.	.	.	.
.	.	.	.	8g/L	.	(8ee\L	.
.	.	.	.	8f#/J	.	8dd\J)	.
=6	=6	=6	=6	=6	=6	=6	=6
2AA/	.	4A/]	.	8e/L	.	(8cc#\L	.
.	.	.	.	8d/J	.	8b\J)	.
.	.	16A/LL	.	[4c#/	.	[4a/	.
.	.	16B/	.	.	.	.	.
.	.	16c#/	.	.	.	.	.
.	.	16d/JJ	.	.	.	.	.
=7	=7	=7	=7	=7	=7	=7	=7
4EE/	.	[2e\	.	8c#/L]	.	(8a/L]	.
.	.	.	.	16.B/L	.	16.g#/L	.
.	.	.	.	32A/JJk	.	32f#/JJk)	.
4E\	.	.	.	8B/L	.	(8g#/L	.
.	.	.	.	8d/J	.	8b/J)	.
=8	=8	=8	=8	=8	=8	=8	=8
.	.	.	.	(c#q\	.	(aq\	.
.	.	.	.	dq\	.	bq\)	.
.	.	.	.	eq\	.	cc#q\	.
4.AA/	.	8e/L]	.	4d/	.	4b\	.
.	.	8G#/J	.	.	.	.	.
.	.	8A/	.	8c#/)	.	8a/	.
=:|!|:	=:|!|:	=:|!|:	=:|!|:	=:|!|:	=:|!|:	=:|!|:	=:|!|:
*>B	*>B	*>B	*>B	*>B	*>B	*>B	*>B
(8F#\	.	8A/	.	8r	.	8r	.
=9	=9	=9	=9	=9	=9	=9	=9
8D\L	.	8F#/L	.	[2d/	.	[2dd\	.
8E\J	.	8G/J	.	.	.	.	.
16G\LL	.	16B/LL	.	.	.	.	.
16F#\	.	16A/	.	.	.	.	.
16E\	.	16G/	.	.	.	.	.
16F#\JJ)	.	16A/JJ	.	.	.	.	.
=10	=10	=10	=10	=10	=10	=10	=10
(8G\L	.	8B/L	.	4.d/]	.	4.dd\]	.
8B\J	.	8d/	.	.	.	.	.
16F#\LL)	.	8A/J	.	.	.	.	.
(16D\	.	.	.	.	.	.	.
16F#\	.	8r	.	8d/	.	8aa\	.
16A\JJ)	.	.	.	.	.	.	.
=11	=11	=11	=11	=11	=11	=11	=11
4.d\	<	4.d\	<	8d/L	<	8ff#\L	<
.	.	.	.	8e/J	<	8gg\J	<
.	.	.	.	16g/LL	.	16bb\LL	.
.	.	.	.	16f#/	.	16aa\	.
8cn\	<	8d\	<	16e/	.	16gg\	.
.	.	.	.	16f#/JJ	.	16aa\JJ	.
=12	=12	=12	=12	=12	=12	=12	=12
8B\L	.	8d\L	.	8g/L	.	8bb\L	.
8G\	.	8g\	.	8b/	.	8ddd\	.
8d\J	.	8f#\J	.	8a/J	.	8aa\	.
8r	.	8r	.	8r	.	8aa\J	.
=13	=13	=13	=13	=13	=13	=13	=13
2D\	p	4a\	p	4ff#\	p	4fff#\	.
.	.	8g\L	.	8ee\L	.	8eee\L	.
.	.	8f#\J	.	8dd\J	.	8ddd\J	.
=14	=14	=14	=14	=14	=14	=14	=14
2A\	.	8e\L	.	8cc#\L	.	8ccc#\L	.
.	.	8d\J	.	8b\J	.	8bb\J	.
.	.	8c#/L	.	8ee\L	.	[4aa\	.
.	.	8B/J	.	8dd\J	.	.	.
=15	=15	=15	=15	=15	=15	=15	=15
4.AA/	.	8A/L	.	8cc#/L	.	8aa\L]	.
.	.	8G/	.	8b/	.	8aa\J	.
.	.	8F#/	.	8a/	.	8aa\L	.
8AA/	.	8E/J	.	8g/J	.	16bb\L	.
.	.	.	.	.	.	16ccc#\JJ	.
=16	=16	=16	=16	=16	=16	=16	=16
8D/L	.	4E/	.	[4A/ 4g/	.	4ccc#\	.
8AA/	.	.	.	.	.	.	.
8DD/J	.	8D/	.	8A/] 8f#/	.	8ddd\	.
=:|!|:	=:|!|:	=:|!|:	=:|!|:	=:|!|:	=:|!|:	=:|!|:	=:|!|:
*>C	*>C	*>C	*>C	*>C	*>C	*>C	*>C
16.AA/LL	p	8r	.	8r	.	8r	.
32AA/JJk	.	.	.	.	.	.	.
=17	=17	=17	=17	=17	=17	=17	=17
4F#\	.	2r	.	2r	.	2r	.
16G\LL	.	.	.	.	.	.	.
16E\	.	.	.	.	.	.	.
16F#\	.	.	.	.	.	.	.
16D\JJ	.	.	.	.	.	.	.
=18	=18	=18	=18	=18	=18	=18	=18
16C#\LL	.	4r	.	2r	.	2r	.
16D\	.	.	.	.	.	.	.
16E\	.	.	.	.	.	.	.
16F#\JJ	.	.	.	.	.	.	.
16E/LL	.	8r	.	.	.	.	.
16D/	.	.	.	.	.	.	.
16C#/	.	16.A/LL	p	.	.	.	.
16BB/JJ	.	.	.	.	.	.	.
.	.	32A/JJk	.	.	.	.	.
=19	=19	=19	=19	=19	=19	=19	=19
16AA\LL	.	4g\	.	2r	.	2r	.
16A\	.	.	.	.	.	.	.
16BB\	.	.	.	.	.	.	.
16A\JJ	.	.	.	.	.	.	.
.	.	aq\	.	.	.	.	.
.	.	gq\	.	.	.	.	.
.	.	f#q\	.	.	.	.	.
.	.	gq\	.	.	.	.	.
16C#\LL	.	16a\LL	.	.	.	.	.
16A\	.	16f#\	.	.	.	.	.
16AA\	.	16g\	.	.	.	.	.
16A\JJ	.	16e\JJ	.	.	.	.	.
=20	=20	=20	=20	=20	=20	=20	=20
16D\LL	.	16f#\LL	.	4r	.	2r	.
16A\	.	16g\	.	.	.	.	.
16E\	.	16a\	.	.	.	.	.
16A\JJ	.	16b\JJ	.	.	.	.	.
16F#\LL	.	16a\LL	.	8r	.	.	.
16A\	.	16g\	.	.	.	.	.
16C#\	.	16f#\	.	16.a/LL	p	.	.
16A\JJ	.	16e\JJ	.	.	.	.	.
.	.	.	.	32a/JJk	.	.	.
=21	=21	=21	=21	=21	=21	=21	=21
16D\LL	.	16f#\LL	.	4ff#\	.	4r	.
16A\	.	16a\	.	.	.	.	.
16d\	.	16f#\	.	.	.	.	.
16A\JJ	.	16a\JJ	.	.	.	.	.
.	.	.	.	ggq\	.	.	.
.	.	.	.	ff#q\	.	.	.
.	.	.	.	eeq\	.	.	.
.	.	.	.	ff#q\	.	.	.
16c#\LL	.	16e\LL	.	16gg\LL	.	8r	.
16A\	.	16a\	.	16ee\	.	.	.
16d\	.	16f#\	.	16ff#\	.	16.aa\LL	p
16D\JJ	.	16f#\JJ	.	16dd\JJ	.	.	.
.	.	.	.	.	.	32aa\JJk	.
=22	=22	=22	=22	=22	=22	=22	=22
16c#\LL	<	16e\LL	<	[4ee\	<	4eee\	<
16C#\	<	16ee\	<	.	.	.	.
16B\	.	16B\	.	.	.	.	.
16BB\JJ	.	16b\JJ	.	.	.	.	.
.	.	.	.	.	.	fff#q\	.
.	.	.	.	.	.	eeeq\	.
.	.	.	.	.	.	ddd#q\	.
.	.	.	.	.	.	eeeq\	.
16A/LL	.	16c#\LL	.	16ee\LL]	<	16aaa\LL	<
16AA/	.	16cc#\	.	16cc#\	.	16eee\	.
16F#/	.	16A\	.	16ccn\	.	16aaa\	.
16FF#/JJ	.	16a\JJ	.	16ccn\JJ	.	16ddd#\JJ	.
=23	=23	=23	=23	=23	=23	=23	=23
16EE/LL	.	16a\LL	.	16e/LL 16cc#/	.	16eee\LL	.
16EE/	.	16a\J	.	16e/J 16cc#/	.	16ccc#\	.
16AA/	.	16r	.	16r	.	16aa\	.
16C#/JJ	.	16a\k	.	16e/k 16cc#/	.	16ee\JJ	.
16E\LL	.	16r	.	16r	.	16dd/LL	.
16G#\	.	16b\k	.	16e/k 16dd/	.	16b/	.
16B\	.	16r	.	16r	.	16g#/	.
16d\JJ	.	16E\Jk	.	16b/Jk	.	16e/JJ	.
=24	=24	=24	=24	=24	=24	=24	=24
(4d\	p	16A\LL	p	4g#/	p	4b\	p
.	.	16e\	.	.	.	.	.
.	.	16A\	.	.	.	.	.
.	.	16e\JJ	.	.	.	.	.
8c#\)	.	8a\	.	8a/	.	8a/	.
=:|!|:	=:|!|:	=:|!|:	=:|!|:	=:|!|:	=:|!|:	=:|!|:	=:|!|:
*>D	*>D	*>D	*>D	*>D	*>D	*>D	*>D
16.AA/LL	p	8r	.	8r	.	8r	.
32AA/JJk	.	.	.	.	.	.	.
=25	=25	=25	=25	=25	=25	=25	=25
8.D/L	.	2r	.	2r	.	2r	.
(48AA/LL	.	.	.	.	.	.	.
48BB/	.	.	.	.	.	.	.
48C#/JJJ)	.	.	.	.	.	.	.
16D/LL	.	.	.	.	.	.	.
16C#/	.	.	.	.	.	.	.
16D/	.	.	.	.	.	.	.
16Cn/JJ	.	.	.	.	.	.	.
=26	=26	=26	=26	=26	=26	=26	=26
16D/LL	.	4r	.	4g/	p	2r	.
16BB/	.	.	.	.	.	.	.
16D/	.	.	.	.	.	.	.
16BB-/JJ	.	.	.	.	.	.	.
16D/LL	.	8r	.	8a/L	.	.	.
16AA/	.	.	.	.	.	.	.
16D/	.	16.d\LL	p	8b-/J	.	.	.
16GG/JJ	.	.	.	.	.	.	.
.	.	32d\JJk	.	.	.	.	.
=27	=27	=27	=27	=27	=27	=27	=27
16FF#/LL	.	8.dd\L	.	8a/	.	2r	.
16D/	.	.	.	.	.	.	.
16DD/	.	.	.	8r	.	.	.
16D/JJ	.	48a\LL	.	.	.	.	.
.	.	48b\	.	.	.	.	.
.	.	48cc#\JJJ	.	.	.	.	.
16EE/LL	.	16dd\LL	.	4r	.	.	.
16D/	.	16cc#\	.	.	.	.	.
16FF#/	.	16dd\	.	.	.	.	.
16D/JJ	.	16ccn\JJ	.	.	.	.	.
=28	=28	=28	=28	=28	=28	=28	=28
16GG/LL	.	16dd\LL	.	4r	.	4gg\	p
16D/	.	16b\	.	.	.	.	.
16GG/	.	16dd\	.	.	.	.	.
16D/JJ	.	16b-\JJ	.	.	.	.	.
16FF#/LL	.	16dd\LL	.	8r	.	8aa\L	.
16D/	.	16a\	.	.	.	.	.
16GG/	.	16dd\	.	16.d/LL	p	8bb-\J	.
16D/JJ	.	16g\JJ	.	.	.	.	.
.	.	.	.	32d/JJk	.	.	.
=29	=29	=29	=29	=29	=29	=29	=29
16DD/LL	.	16dd\LL	.	4ff#\	.	8aa\L	.
16A/	.	16f#\	.	.	.	.	.
16D/	.	16a\	.	.	.	8r	.
16A/JJ	.	16f#\JJ	.	.	.	.	.
.	.	.	.	ggq\	.	.	.
.	.	.	.	ff#q\	.	.	.
.	.	.	.	eeq\	.	.	.
.	.	.	.	ff#q\	.	.	.
16C#\LL	.	16e\LL	.	16gg\LL	.	8r	.
16A\	.	16a\	.	16ee\	.	.	.
16D\	.	16f#\	.	16ff#\	.	16.aa\L	.
16A\JJ	.	16a\JJ	.	16dd\JJ	.	.	.
.	.	.	.	.	.	32aa\JJk	.
=30	=30	=30	=30	=30	=30	=30	=30
16E\LL	<	16g\LL	<	16cc#\LL	<	[2ggg\	<
16A\	<	16a\	<	16a\	<	.	.
16D\	.	16f#\	.	16dd\	.	.	.
16A\JJ	.	16a\JJ	.	16a\JJ	.	.	.
16C#\LL	.	16e\LL	.	16ee\LL	.	.	.
16A\	.	16a\	.	16a\	.	.	.
16BB\	.	16d\	.	16ff#\	.	.	.
16A\JJ	.	16a\JJ	.	16a\JJ	.	.	.
=31	=31	=31	=31	=31	=31	=31	=31
16AA/LL	.	16c#\LL	.	16gg/LL	.	16ggg\LL]	<
16AA/	.	16c#\J	.	16A/J 16g/	.	16eee\	.
16C#/	.	16r	.	16r	.	16ccc#\	.
16E/JJ	.	16c#\k	.	16A/k 16g/	.	16aa\JJ	.
16A\LL	.	16r	.	16r	.	16gg\LL	.
16c#\	.	16e\k	.	16A/k 16g/	.	16ee\	.
16e\	.	16r	.	16r	.	16cc#\	.
16g\JJ	.	16A\Jk	.	16c#/Jk	.	16a\JJ	.
=32	=32	=32	=32	=32	=32	=32	=32
(4g\	p	16D/LL	p	4c#/	p	4ee\	p
.	.	16A/	.	.	.	.	.
.	.	16D/	.	.	.	.	.
.	.	16A/JJ	.	.	.	.	.
8f#\)	.	8D/	.	8d/	.	8dd\	.
=:|!|:	=:|!|:	=:|!|:	=:|!|:	=:|!|:	=:|!|:	=:|!|:	=:|!|:
*>E	*>E	*>E	*>E	*>E	*>E	*>E	*>E
8r	.	8r	.	8r	.	24r	pp
.	.	.	.	.	.	24a\LL	.
.	.	.	.	.	.	24dd\JJ	.
=33	=33	=33	=33	=33	=33	=33	=33
16D\LK	pp	16A/LK	pp	16f#/LK	pp	24ff#/LL	.
.	.	.	.	.	.	24d/	.
16r	.	16r	.	16r	.	.	.
.	.	.	.	.	.	24f#/JJ	.
16D\Jk	.	16A/Jk	.	16f#/Jk	.	24a\LL	.
.	.	.	.	.	.	24dd\	.
16r	.	16r	.	16r	.	.	.
.	.	.	.	.	.	24ff#\JJ	.
4r	.	4r	.	4r	.	24aa\LL	.
.	.	.	.	.	.	24gg\	.
.	.	.	.	.	.	24ff#\JJ	.
.	.	.	.	.	.	24ee\LL	.
.	.	.	.	.	.	24ff#\	.
.	.	.	.	.	.	24dd\JJ	.
=34	=34	=34	=34	=34	=34	=34	=34
8E\L	.	8A/L	.	8g/L	.	24cc#\LL	.
.	.	.	.	.	.	24aa\	.
.	.	.	.	.	.	24gg\JJ	.
8E\J	.	8A/J	.	8g/J	.	24ff#\LL	.
.	.	.	.	.	.	24ee\	.
.	.	.	.	.	.	24dd\JJ	.
4r	.	4r	.	4r	.	24cc#\LL	.
.	.	.	.	.	.	24ff#\	.
.	.	.	.	.	.	24ee\JJ	.
.	.	.	.	.	.	24dd\LL	.
.	.	.	.	.	.	24cc#\	.
.	.	.	.	.	.	24b\JJ	.
=35	=35	=35	=35	=35	=35	=35	=35
8C#/L	.	8A/L	.	8e/L	.	24a\LL	.
.	.	.	.	.	.	24cc#\	.
.	.	.	.	.	.	24ee\JJ	.
8C#/J	.	8A/J	.	8e/J	.	24aa\LL	.
.	.	.	.	.	.	24ccc#\	.
.	.	.	.	.	.	24ddd\JJ	.
4r	.	4r	.	4r	.	24eee\LL	.
.	.	.	.	.	.	24ddd\	.
.	.	.	.	.	.	24ccc#\JJ	.
.	.	.	.	.	.	24bb\LL	.
.	.	.	.	.	.	24aa\	.
.	.	.	.	.	.	24gg\JJ	.
=36	=36	=36	=36	=36	=36	=36	=36
8D\L	.	8A/L	.	8f#/L	.	24ff#\LL	.
.	.	.	.	.	.	24ddd\	.
.	.	.	.	.	.	24ccc#\JJ	.
8D\J	.	8A/J	.	8f#/J	.	24bb\LL	.
.	.	.	.	.	.	24aa\	.
.	.	.	.	.	.	24gg\JJ	.
4r	.	4r	.	4r	.	24ff#\LL	.
.	.	.	.	.	.	24bb\	.
.	.	.	.	.	.	24aa\JJ	.
.	.	.	.	.	.	24gg\LL	.
.	.	.	.	.	.	24ff#\	.
.	.	.	.	.	.	24ee\JJ	.
=37	=37	=37	=37	=37	=37	=37	=37
8D\	.	8A/	.	8f#/	.	12dd/L	.
.	.	.	.	.	.	24f#/Jk	.
8r	.	8r	.	8r	.	24a\LL	.
.	.	.	.	.	.	24dd\	.
.	.	.	.	.	.	24ff#\JJ	.
8C#/L	.	8A/L	.	8e/L	.	24aa\LL	.
.	.	.	.	.	.	24aa\	.
.	.	.	.	.	.	24aa\JJ	.
8BB/J	.	8A/J	.	8d/J	.	24aa\LL	.
.	.	.	.	.	.	24aa\	.
.	.	.	.	.	.	24aa\JJ	.
=38	=38	=38	=38	=38	=38	=38	=38
8C#/	.	8A/	.	8e/	.	24aa\LL	.
.	.	.	.	.	.	24a\	.
.	.	.	.	.	.	24cc#\JJ	.
8r	.	8r	.	8r	.	24ee\LL	.
.	.	.	.	.	.	24aa\	.
.	.	.	.	.	.	24ccc#\JJ	.
8BB/L	.	8G#/L	.	8d/L	.	24eee\LL	.
.	.	.	.	.	.	24eee\	.
.	.	.	.	.	.	24eee\JJ	.
8AA/J	.	8A/J	.	8c#/J	.	24eee\LL	.
.	.	.	.	.	.	24eee\	.
.	.	.	.	.	.	24eee\JJ	.
=39	=39	=39	=39	=39	=39	=39	=39
.	.	.	.	.	.	eeeq\	.
8r	.	8B/	.	8d/	.	24ddd\LL	.
.	.	.	.	.	.	24ccc#\	.
.	.	.	.	.	.	24bb\JJ	.
.	.	.	.	.	.	bbq\	.
8EE/L	.	8r	.	8r	.	24aa\LL	.
.	.	.	.	.	.	24gg#\	.
.	.	.	.	.	.	24ff#\JJ	.
.	.	.	.	.	.	eeq\	.
8r	.	8B/	.	8d/	.	24ee\LL	.
.	.	.	.	.	.	24dd\	.
.	.	.	.	.	.	24cc#\JJ	.
.	.	.	.	.	.	cc#q\	.
8E/J	.	8r	.	8r	.	24b/LL	.
.	.	.	.	.	.	24a/	.
.	.	.	.	.	.	24g#/JJ	.
=40	=40	=40	=40	=40	=40	=40	=40
8AA/L	.	8r	.	24r	.	4b\	.
.	.	.	.	24d/LL	.	.	.
.	.	.	.	24c#/	.	.	.
8EE/	.	8G#/L	.	24d/	.	.	.
.	.	.	.	24e/	.	.	.
.	.	.	.	24d/JJ	.	.	.
8AA/J	.	8A/J	.	8c#/	.	8a/	.
=:|!|:	=:|!|:	=:|!|:	=:|!|:	=:|!|:	=:|!|:	=:|!|:	=:|!|:
*>F	*>F	*>F	*>F	*>F	*>F	*>F	*>F
8r	.	8r	.	8r	.	24r	.
.	.	.	.	.	.	24a/LL	.
.	.	.	.	.	.	24g/JJ	.
=41	=41	=41	=41	=41	=41	=41	=41
8D\L	.	8d\L	.	8f#/L 8a/	.	24f#/LL	.
.	.	.	.	.	.	24d/	.
.	.	.	.	.	.	24f#/JJ	.
8D\J	.	8d\J	.	8f#/J 8a/	.	24a\LL	.
.	.	.	.	.	.	24cc#\	.
.	.	.	.	.	.	24dd\JJ	.
4r	.	4r	.	4r	.	24ff#\LL	.
.	.	.	.	.	.	24aa\	.
.	.	.	.	.	.	24ccc#\JJ	.
.	.	.	.	.	.	24ddd\LL	.
.	.	.	.	.	.	24ddd\	.
.	.	.	.	.	.	24ddd\JJ	.
=42	=42	=42	=42	=42	=42	=42	=42
2r	.	24G/LL	.	8.b/L	.	8.ddd\L	.
.	.	24B/	.	.	.	.	.
.	.	24d/JJ	<	.	.	.	.
.	.	24g\LL	.	.	.	.	.
.	.	24b\	.	.	.	.	.
.	.	.	.	16g/Jk	<	16bb\Jk	<
.	.	24dd\JJ	.	.	.	.	.
.	.	24dd\LL	.	8e#/L	.	8gg#\L	.
.	.	24dd\	.	.	.	.	.
.	.	24dd\JJ	>	.	.	.	.
.	.	24dd\LL	.	16f#/Jk	>	16aa\Jk	>
.	.	24dd\	.	.	.	.	.
.	.	.	.	16r	.	16r	.
.	.	24dd\JJ	.	.	.	.	.
=43	=43	=43	=43	=43	=43	=43	=43
8D\L	.	8d\L	.	8f#/L 8a/	.	24d/LL	.
.	.	.	.	.	.	24e/	.
.	.	.	.	.	.	24f#/JJ	.
8D\J	.	8d\J	.	8f#/J 8a/	.	24g/LL	.
.	.	.	.	.	.	24a/	.
.	.	.	.	.	.	24b/JJ	.
4r	.	4r	.	4r	.	24cc#\LL	.
.	.	.	.	.	.	24dd\	.
.	.	.	.	.	.	24ee\JJ	.
.	.	.	.	.	.	24ff#\LL	.
.	.	.	.	.	.	24gg\	.
.	.	.	.	.	.	24aa\JJ	.
=44	=44	=44	=44	=44	=44	=44	=44
24GG/LL	.	8.d\L	.	8.b/L	.	8.bb\L	.
24BB/	.	.	.	.	.	.	.
24D/JJ	<	.	.	.	.	.	.
24G\LL	.	.	.	.	.	.	.
24B\	.	.	.	.	.	.	.
.	.	16B\Jk	<	16g/Jk	<	16gg\Jk	<
24d\JJ	.	.	.	.	.	.	.
24d\LL	.	8G#/L	.	8e#/L	.	8ee#\L	.
24d\	.	.	.	.	.	.	.
24d\JJ	>	.	.	.	.	.	.
24d\LL	.	16A/Jk	>	16f#/Jk	>	24ff#\L	>
24d\	.	.	.	.	.	24a\	.
.	.	16r	.	16r	.	.	.
24d\JJ	.	.	.	.	.	24dd\JJ	.
=45	=45	=45	=45	=45	=45	=45	=45
8D\L	pp	8A/L	pp	8f#/L	pp	24ff#/LL	pp
.	.	.	.	.	.	24d/	.
.	.	.	.	.	.	24f#/JJ	.
8D\J	.	8A/J	.	8f#/J	.	24a\LL	.
.	.	.	.	.	.	24dd\	.
.	.	.	.	.	.	24ff#\JJ	.
4r	.	4r	.	4r	.	24aa\LL	.
.	.	.	.	.	.	24gg\	.
.	.	.	.	.	.	24ff#\JJ	.
.	.	.	.	.	.	24ee\LL	.
.	.	.	.	.	.	24ff#\	.
.	.	.	.	.	.	24dd\JJ	.
=46	=46	=46	=46	=46	=46	=46	=46
8E\L	.	8A/L	.	8g/L	.	24cc#\LL	.
.	.	.	.	.	.	24aa\	.
.	.	.	.	.	.	24gg\JJ	.
8E\J	.	8A/J	.	8g/J	.	24ff#\LL	.
.	.	.	.	.	.	24ee\	.
.	.	.	.	.	.	24dd\JJ	.
4r	.	4r	.	4r	.	24cc#\LL	.
.	.	.	.	.	.	24ff#\	.
.	.	.	.	.	.	24ee\JJ	.
.	.	.	.	.	.	24dd\LL	.
.	.	.	.	.	.	24cc#\	.
.	.	.	.	.	.	24b\JJ	.
=47	=47	=47	=47	=47	=47	=47	=47
8r	.	8e\	.	8A/ 8g/	.	24a\LL	.
.	.	.	.	.	.	24cc#\	.
.	.	.	.	.	.	24ee\JJ	.
8C#/L	.	8r	.	8r	.	24aa\LL	.
.	.	.	.	.	.	24ccc#\	.
.	.	.	.	.	.	24eee\JJ	.
8r	.	8e\	.	8A/ 8g/	.	24ggg\LL	.
.	.	.	.	.	.	24eee\	.
.	.	.	.	.	.	24ccc#\JJ	.
8AA/J	.	8r	.	8r	.	24ggg\LL	.
.	.	.	.	.	.	24eee\	.
.	.	.	.	.	.	24ccc#\JJ	.
=48	=48	=48	=48	=48	=48	=48	=48
8D/L	.	8r	.	24r	.	4eee\	.
.	.	.	.	24g/LL	.	.	.
.	.	.	.	24f#/	.	.	.
8AA/J	.	8c#\	.	24g/	.	.	.
.	.	.	.	24a/	.	.	.
.	.	.	.	24g/JJ	.	.	.
8D\	.	8d\	.	8f#/	.	8ddd\	.
=:|!	=:|!	=:|!	=:|!	=:|!	=:|!	=:|!	=:|!
*>G	*>G	*>G	*>G	*>G	*>G	*>G	*>G
8r	.	8A/	p	8r	.	8r	.
=49!|:	=49!|:	=49!|:	=49!|:	=49!|:	=49!|:	=49!|:	=49!|:
*>H	*>H	*>H	*>H	*>H	*>H	*>H	*>H
(4D\	p	4f#\	.	32f#/LLL	p	2r	.
.	.	.	.	32a/	.	.	.
.	.	.	.	32b/	.	.	.
.	.	.	.	32a/JJJ	.	.	.
.	.	.	.	32b/LLL	.	.	.
.	.	.	.	32a/	.	.	.
.	.	.	.	32b/	.	.	.
.	.	.	.	32a/JJJ	.	.	.
8E\L	.	8e\L	.	32g/LLL	.	.	.
.	.	.	.	32a/	.	.	.
.	.	.	.	32b/	.	.	.
.	.	.	.	32a/JJJ	.	.	.
8F#\J	.	8d\J	.	32f#/LLL	.	.	.
.	.	.	.	32a/	.	.	.
.	.	.	.	32b/	.	.	.
.	.	.	.	32a/JJJ	.	.	.
=50	=50	=50	=50	=50	=50	=50	=50
8G\)	.	8c#\	.	32e/LLL	.	2r	.
.	.	.	.	32a/	.	.	.
.	.	.	.	32b/	.	.	.
.	.	.	.	32a/JJJ	.	.	.
8r	.	8r	.	32b/LLL	.	.	.
.	.	.	.	32a/	.	.	.
.	.	.	.	32b/	.	.	.
.	.	.	.	32a/JJJ	.	.	.
4r	.	4r	.	32b/LLL	.	.	.
.	.	.	.	32a/	.	.	.
.	.	.	.	32b/	.	.	.
.	.	.	.	32a/JJJ	.	.	.
.	.	.	.	32b/LLL	.	.	.
.	.	.	.	32a/	.	.	.
.	.	.	.	32b/	.	.	.
.	.	.	.	32a/JJJ	.	.	.
=51	=51	=51	=51	=51	=51	=51	=51
(4AA/	.	2r	.	32cc#/LLL	.	4gg\	p
.	.	.	.	32a/	.	.	.
.	.	.	.	32b/	.	.	.
.	.	.	.	32a/JJJ	.	.	.
.	.	.	.	32b/LLL	.	.	.
.	.	.	.	32a/	.	.	.
.	.	.	.	32b/	.	.	.
.	.	.	.	32a/JJJ	.	.	.
8BB/L	.	.	.	32dd\LLL	.	8ff#\L	.
.	.	.	.	32a\	.	.	.
.	.	.	.	32b\	.	.	.
.	.	.	.	32a\JJJ	.	.	.
8C#/J)	.	.	.	32g/LLL	.	8ee\J	.
.	.	.	.	32a/	.	.	.
.	.	.	.	32b/	.	.	.
.	.	.	.	32a/JJJ	.	.	.
=52	=52	=52	=52	=52	=52	=52	=52
8D\	.	2r	.	32f#/LLL	.	8dd\	.
.	.	.	.	32a/	.	.	.
.	.	.	.	32b/	.	.	.
.	.	.	.	32a/JJJ	.	.	.
8r	.	.	.	32b/LLL	.	8r	.
.	.	.	.	32a/	.	.	.
.	.	.	.	32b/	.	.	.
.	.	.	.	32a/JJJ	.	.	.
4r	.	.	.	32b/LLL	.	4r	.
.	.	.	.	32a/	.	.	.
.	.	.	.	32b/	.	.	.
.	.	.	.	32a/JJJ	.	.	.
.	.	.	.	32b/LLL	.	.	.
.	.	.	.	32a/	.	.	.
.	.	.	.	32b/	.	.	.
.	.	.	.	32a/JJJ	.	.	.
=53	=53	=53	=53	=53	=53	=53	=53
2r	.	[4D/	p	32f#/LLL	.	32bb\LLL	.
.	.	.	.	32a/	.	32aa\	.
.	.	.	.	32f#/	.	32bb\	.
.	.	.	.	32a/JJJ	.	32aa\JJJ	.
.	.	.	.	32f#/LLL	.	32bb\LLL	.
.	.	.	.	32a/	.	32aa\	.
.	.	.	.	32f#/	.	32bb\	.
.	.	.	.	32a/JJJ	.	32aa\JJJ	.
.	.	16D/LL]	.	32e/LLL	.	32aa\LLL	.
.	.	.	.	32a/	.	32gg\	.
.	.	16E/	.	32e/	.	32aa\	.
.	.	.	.	32a/JJJ	.	32gg\JJJ	.
.	.	16F#/	.	32d/LLL	.	32gg\LLL	.
.	.	.	.	32a/	.	32ff#\	.
.	.	16G/JJ	.	32d/	.	32gg\	.
.	.	.	.	32a/JJJ	.	32ff#\JJJ	.
=54	=54	=54	=54	=54	=54	=54	=54
[4AA/	<	[4A/	<	32c#/LLL	<	32ff#\LLL	<
.	.	.	.	32a/	.	32ee\	.
.	.	.	.	32cc#/	<	32ff#\	<
.	.	.	.	32a/JJJ	.	32ee\JJJ	.
.	.	.	.	32cc#\LLL	.	32ff#\LLL	.
.	.	.	.	32a\	.	32ee\	.
.	.	.	.	32cc#\	.	32ff#\	.
.	.	.	.	32a\JJJ	.	32ee\JJJ	.
(16AA/LL]	<	16A/LL]	<	32cc#\LLL	.	32ff#\LLL	.
.	.	.	.	32a\	.	32ee\	.
16BB/	.	16B/	.	32cc#\	.	32ff#\	.
.	.	.	.	32a\JJJ	.	32ee\JJJ	.
16C#/	.	16c#/	.	32cc#\LLL	.	32ff#\LLL	.
.	.	.	.	32a\	.	32ee\	.
16D/JJ)	.	16d/JJ	.	32cc#\	.	32ff#\	.
.	.	.	.	32a\JJJ	.	32ee\JJJ	.
=55	=55	=55	=55	=55	=55	=55	=55
[2E\	.	[2e\	.	32cc#\LLL	.	32ff#\LLL	.
.	.	.	.	32a\	.	32ee\	.
.	.	.	.	32cc#\	.	32ff#\	.
.	.	.	.	32a\JJJ	.	32ee\JJJ	.
.	.	.	.	32dd\LLL	.	32gg#\LLL	.
.	.	.	.	32a\	.	32ee\	.
.	.	.	.	32dd\	.	32aa\	.
.	.	.	.	32a\JJJ	.	32ee\JJJ	.
.	.	.	.	32b/LLL	.	32bb\LLL	.
.	.	.	.	32a/	.	32ee\	.
.	.	.	.	32b/	.	32ccc#\	.
.	.	.	.	32a/JJJ	.	32ee\JJJ	.
.	.	.	.	32g#/LLL	.	32ddd\LLL	.
.	.	.	.	32a/	.	32ee\	.
.	.	.	.	32b/	.	32eee\	.
.	.	.	.	32g#/JJJ	.	32ee\JJJ	.
=56	=56	=56	=56	=56	=56	=56	=56
8E/L]	.	8e/L]	.	32cc#\LLL	p	8aa\	p
.	.	.	.	32a\	.	.	.
.	.	.	.	32dd\	.	.	.
.	.	.	.	32b\JJJ	.	.	.
8AA/J	p	8A/	p	32ee\LLL	.	8r	.
.	.	.	.	32cc#\	.	.	.
.	.	.	.	32ff#\	.	.	.
.	.	.	.	32dd\JJJ	.	.	.
4r	.	8r	.	32gg\LLL	.	4r	.
.	.	.	.	32ff#\	.	.	.
.	.	.	.	32ee\	.	.	.
.	.	.	.	32dd\JJJ	.	.	.
.	.	8A/J	.	32cc#/LLL	.	.	.
.	.	.	.	32b/	.	.	.
.	.	.	.	32a/	.	.	.
.	.	.	.	32g/JJJ	.	.	.
=57:|!|:	=57:|!|:	=57:|!|:	=57:|!|:	=57:|!|:	=57:|!|:	=57:|!|:	=57:|!|:
*>I	*>I	*>I	*>I	*>I	*>I	*>I	*>I
2r	.	[4d\	.	32f#/LLL	.	32ee\LLL	.
.	.	.	.	32a/	.	32dd\	.
.	.	.	.	32f#/	.	32ee\	.
.	.	.	.	32a/JJJ	.	32dd\JJJ	.
.	.	.	.	32f#/LLL	.	32ee\LLL	.
.	.	.	.	32a/	.	32dd\	.
.	.	.	.	32f#/	.	32ee\	.
.	.	.	.	32a/JJJ	.	32dd\JJJ	.
.	.	16d/LL]	.	32f#/LLL	.	32ee\LLL	.
.	.	.	.	32a/	.	32dd\	.
.	.	16A/	.	32f#/	.	32ee\	.
.	.	.	.	32a/JJJ	.	32dd\JJJ	.
.	.	16d/	.	32f#/LLL	.	32ee\LLL	.
.	.	.	.	32a/	.	32dd\	.
.	.	16cn/JJ	.	32f#/	.	32ee\	.
.	.	.	.	32a/JJJ	.	32dd\JJJ	.
=58	=58	=58	=58	=58	=58	=58	=58
2r	.	8B/L	.	32g/LLL	.	32ee\LLL	.
.	.	.	.	32b/	.	32dd\	.
.	.	.	.	32g/	.	32ee\	.
.	.	.	.	32b/JJJ	.	32dd\JJJ	.
.	.	8G/	.	32g/LLL	.	32ee\LLL	.
.	.	.	.	32b/	.	32dd\	.
.	.	.	.	32g/	.	32ee\	.
.	.	.	.	32b/JJJ	.	32dd\JJJ	.
.	.	8d/J	.	32f#/LLL	.	32ee\LLL	.
.	.	.	.	32a/	.	32dd\	.
.	.	.	.	32f#/	.	32ee\	.
.	.	.	.	32a/JJJ	.	32dd\JJJ	.
.	.	8r	.	32f#/LLL	.	32ee\LLL	.
.	.	.	.	32a/	.	32dd\	.
.	.	.	.	32f#/	.	32ee\	.
.	.	.	.	32a/JJJ	.	32dd\JJJ	.
=59	=59	=59	=59	=59	=59	=59	=59
[4D\	p	2r	.	32a\LLL	.	(32gg\LLL	.
.	.	.	.	32dd\	.	32ff#\)	.
.	.	.	.	32a\	.	(32gg\	.
.	.	.	.	32dd\JJJ	.	32ff#\JJJ	.
.	.	.	.	32a\LLL	.	32gg\LLL	.
.	.	.	.	32dd\	.	32ff#\	.
.	.	.	.	32a\	.	32gg\	.
.	.	.	.	32dd\JJJ	.	32ff#\JJJ	.
(16D/LL]	.	.	.	32a\LLL	.	32gg\LLL	.
.	.	.	.	32dd\	.	32ff#\	.
16AA/	.	.	.	32a\	.	32gg\	.
.	.	.	.	32dd\JJJ	.	32ff#\JJJ	.
16D/	.	.	.	32a\LLL	.	32gg\LLL	.
.	.	.	.	32dd\	.	32ff#\	.
16Cn/JJ)	.	.	.	32a\	.	32gg\	.
.	.	.	.	32dd\JJJ	.	32ff#\JJJ	.
=60	=60	=60	=60	=60	=60	=60	=60
8BB/L	.	2r	.	32b\LLL	.	32aa\LLL	.
.	.	.	.	32dd\	.	32gg\	.
.	.	.	.	32b\	.	32aa\	.
.	.	.	.	32dd\JJJ	.	32gg\JJJ	.
8GG/	.	.	.	32b\LLL	.	32aa\LLL	.
.	.	.	.	32dd\	.	32gg\	.
.	.	.	.	32b\	.	32aa\	.
.	.	.	.	32dd\JJJ	.	32gg\JJJ	.
8D/J	.	.	.	32a\LLL	.	32gg\LLL	.
.	.	.	.	32dd\	.	32ff#\	.
.	.	.	.	32a\	.	32gg\	.
.	.	.	.	32dd\JJJ	.	32ff#\JJJ	.
8r	.	.	.	32a\LLL	.	32gg\LLL	.
.	.	.	.	32dd\	.	32ff#\	.
.	.	.	.	32a\	.	32gg\	.
.	.	.	.	32dd\JJJ	.	32ff#\JJJ	.
=61	=61	=61	=61	=61	=61	=61	=61
[4DD/	.	2r	.	32f#/LLL	.	32bb\LLL	.
.	.	.	.	32a/	.	32aa\	.
.	.	.	.	32f#/	.	32bb\	.
.	.	.	.	32a/JJJ	.	32aa\JJJ	.
.	.	.	.	32f#/LLL	.	32bb\LLL	.
.	.	.	.	32a/	.	32aa\	.
.	.	.	.	32f#/	.	32bb\	.
.	.	.	.	32a/JJJ	.	32aa\JJJ	.
(16DD/LL]	.	.	.	32e/LLL	.	32aa\LLL	.
.	.	.	.	32a/	.	32gg\	.
16EE/	.	.	.	32e/	.	32aa\	.
.	.	.	.	32a/JJJ	.	32gg\JJJ	.
16FF#/	.	.	.	32d/LLL	.	32aa\LLL	.
.	.	.	.	32a/	.	32gg\	.
16GG/JJ)	.	.	.	32d/	.	32aa\	.
.	.	.	.	32a/JJJ	.	32gg\JJJ	.
=62	=62	=62	=62	=62	=62	=62	=62
[2AA/	<	[4A/	.	32c#/LLL	<	32ff#\LLL	<
.	.	.	.	32a/	.	32ee\	.
.	.	.	.	32c#/	<	32ff#\	<
.	.	.	.	32a/JJJ	.	32ee\JJJ	.
.	.	.	.	32c#/LLL	.	32ff#\LLL	.
.	.	.	.	32a/	.	32ee\	.
.	.	.	.	32c#/	.	32ff#\	.
.	.	.	.	32a/JJJ	.	32ee\JJJ	.
.	.	16A/LL]	<	32c#/LLL	.	32ff#\LLL	.
.	.	.	.	32a/	.	32ee\	.
.	.	16B/	.	32d/	.	32ff#\	.
.	.	.	.	32a/JJJ	.	32ee\	.
.	.	16c#/	.	32e/LLL	.	32ff#\	.
.	.	.	.	32a/	.	32ee\	.
.	.	16d/JJ	.	32f#/	.	32gg\	.
.	.	.	.	32a/JJJ	.	32ff#\JJJ	.
=63	=63	=63	=63	=63	=63	=63	=63
8AA/L]	<	16e\LL	.	32g/LLL	.	32aa\LLL	.
.	.	.	.	32a/	.	32gg\	.
.	.	16f#\J	.	32A/	.	32bb\	.
.	.	.	.	32a/JJJ	.	32aa\	.
8AA/	.	[8g\J	.	32A/LLL	.	32ccc#\	.
.	.	.	.	32a/	.	32bb\	.
.	.	.	.	32A/	.	32ddd\	.
.	.	.	.	32a/JJJ	.	32ccc#\JJJ	.
8r	.	8g\L]	.	32A/LLL	.	32eee\LLL	.
.	.	.	.	32a/	.	32ddd\	.
.	.	.	.	32A/	.	32fff#\	.
.	.	.	.	32a/JJJ	.	32eee\	.
[8AA/J	.	[8A\J	.	32A/LLL	.	32ggg\	.
.	.	.	.	32g/	.	32eee\	.
.	.	.	.	32A/	.	32bb\	.
.	.	.	.	32g/JJJ	.	32ccc#\JJJ	.
=64	=64	=64	=64	=64	=64	=64	=64
*>I1	*>I1	*>I1	*>I1	*>I1	*>I1	*>I1	*>I1
(4AA/]	.	4A/]	.	32g\LLL	.	4ccc#\	.
.	.	.	.	32a\	.	.	.
.	.	.	.	32cc#\	.	.	.
.	.	.	.	32ee\JJJ	.	.	.
.	.	.	.	32gg\LLL	.	.	.
.	.	.	.	32ee\	.	.	.
.	.	.	.	32cc#\	.	.	.
.	.	.	.	32g\JJJ	p	.	.
8DD/)	p	8D/	p	32f#/LLL	.	8ddd\	p
.	.	.	.	32dd/	.	.	.
.	.	.	.	32cc#/	.	.	.
.	.	.	.	32b/JJJ	.	.	.
8r	.	8r	.	32a/LLL	.	8r	.
.	.	.	.	32b/	.	.	.
.	.	.	.	32g/	.	.	.
.	.	.	.	32a/JJJ	.	.	.
=65:|!	=65:|!	=65:|!	=65:|!	=65:|!	=65:|!	=65:|!	=65:|!
*>I2	*>I2	*>I2	*>I2	*>I2	*>I2	*>I2	*>I2
(4AA/	.	4A/	.	32g\LLL	.	4ccc#\	.
.	.	.	.	32a\	.	.	.
.	.	.	.	32cc#\	.	.	.
.	.	.	.	32ee\JJJ	.	.	.
.	.	.	.	32gg\LLL	.	.	.
.	.	.	.	32ee\	.	.	.
.	.	.	.	32cc#\	.	.	.
.	.	.	.	32g\JJJ	p	.	.
8DD/)	p	8D/	p	8f#/	.	8ddd\	p
=!|:	=!|:	=!|:	=!|:	=!|:	=!|:	=!|:	=!|:
*>J	*>J	*>J	*>J	*>J	*>J	*>J	*>J
8r	.	8r	.	8r	.	8a/	.
=66	=66	=66	=66	=66	=66	=66	=66
(4d\	.	4d\	.	4a/	.	4ff#\	.
8G\L	.	8g\L	.	8b\L	.	8ee\L	.
8G#\J	.	8fn\J	.	8b\J	.	8dd\J	.
=67	=67	=67	=67	=67	=67	=67	=67
2A\)	.	8e\L	.	8a/L	.	8cc#/L	.
.	.	8d\J	.	8fn/J	.	8g#/J 8b/	.
.	.	[4c#\	.	4e/	.	4a/	.
=68	=68	=68	=68	=68	=68	=68	=68
4.F#\	.	8c#\L]	.	4c#/	.	4a#/	.
.	.	8f#\	.	.	.	.	.
.	.	8e#\	.	8g#/L	.	8b\L	.
[8f#\	.	8e\J	.	8a#/J	.	8cc#\J	.
=69	=69	=69	=69	=69	=69	=69	=69
(8f#\L]	.	8d\L	.	8b\L	.	8dd\L	.
8e\J	.	8c#\J	.	8cc#\J	.	8ee\J	.
4d\)	.	4B/	.	4dd\	.	4ff#\	.
=70	=70	=70	=70	=70	=70	=70	=70
(4B\	.	4.d\	.	4f#/	.	4ff#\	.
8G#\L	.	.	.	8b/L	.	8ee\L	.
8E#\J	.	8B/	.	8g#/J	.	8dd\J	.
=71	=71	=71	=71	=71	=71	=71	=71
8F#/L	.	8A/L	.	8a/L	.	8cc#\L	.
8C#/	.	8G#/J	.	8e#/J	.	8b\J	.
8D/	.	4F#/	.	[4f#/	.	[4a/	.
8BB#/J)	.	.	.	.	.	.	.
=72	=72	=72	=72	=72	=72	=72	=72
(4C#/	.	8C#/	.	8f#/]	.	8a/]	.
.	.	4c#\	.	4e#/	.	4g#/	.
4CC#/)	.	.	.	.	.	.	.
.	.	[8c#\	.	[8g#/	.	[8b\	.
=73	=73	=73	=73	=73	=73	=73	=73
4.FF#/	.	4.c#\]	.	4g#/]	.	4b\]	.
.	.	.	.	8f#/	.	8a/	.
=:|!|:	=:|!|:	=:|!|:	=:|!|:	=:|!|:	=:|!|:	=:|!|:	=:|!|:
*>K	*>K	*>K	*>K	*>K	*>K	*>K	*>K
8r	.	8r	.	8r	.	8a/	.
=74	=74	=74	=74	=74	=74	=74	=74
*	*	*^	*	*	*	*	*
(4FF#/	.	2cn/	[2D\	.	4a/	.	[2d/ [2dd/	.
8EE/L	.	.	.	.	8g/L	.	.	.
8DD/J)	.	.	.	.	8f#/J	.	.	.
=75	=75	=75	=75	=75	=75	=75	=75	=75
(8GG/L	.	8B/L	2D\]	.	8b/L	.	4.d/] 4.dd/]	.
8BB/J	.	8d/J	.	.	8g/J	.	.	.
4D\)	.	4A/	.	.	4f#/	.	.	.
.	.	.	.	.	.	.	8ff#\	.
*	*	*v	*v	*	*	*	*	*
=76	=76	=76	=76	=76	=76	=76	=76
*	*	*	*	*^	*	*	*
[2D\	.	4F#/	.	2ccn/	[2d\	.	4aa\	.
.	.	8E/L	.	.	.	.	8gg\L	.
.	.	8D/J	.	.	.	.	8ff#\J	.
=77	=77	=77	=77	=77	=77	=77	=77	=77
2D\]	.	8G/L	.	8b/L	2d\]	.	8bb\	.
.	.	8B/J	.	8dd/J	.	.	4gg\	.
.	.	4d\	.	4a/	.	.	.	.
.	.	.	.	.	.	.	[8ff#\	.
*	*	*	*	*v	*v	*	*	*
=78	=78	=78	=78	=78	=78	=78	=78
(4.G\	<	4.c#\	<	4.a#/	<	4ff#\]	<
.	.	.	.	.	.	8ee\L	<
8F#\	<	[8B/	<	8b\	<	8dd\J	.
=79	=79	=79	=79	=79	=79	=79	=79
8E#\L	.	8B\L]	.	8g#/L	.	8cc#\L	.
8C#\	.	8c#\	.	8e#/J	.	8b\J	.
8D\)	.	8d\	.	4f#/	.	[4a/	.
[8D#\J	.	[8d#\J	.	.	.	.	.
=80	=80	=80	=80	=80	=80	=80	=80
(8D#\]	pp	8d#\]	pp	4.g/	pp	4a/]	pp
4E\)	.	4e\	.	.	.	.	.
.	.	.	.	.	.	8b\L	.
[8AA/	.	8e\	.	8A/ 8g/	.	8cc#\J	.
=81	=81	=81	=81	=81	=81	=81	=81
(8AA/L]	.	4e\	.	(4A/ 4g/	.	4cc#\	.
8EE/	.	.	.	.	.	.	.
8D/J)	.	8d\	.	8A/) 8f#/	.	8dd\	.
=:|!|:	=:|!|:	=:|!|:	=:|!|:	=:|!|:	=:|!|:	=:|!|:	=:|!|:
*>L	*>L	*>L	*>L	*>L	*>L	*>L	*>L
8r	.	8A/	f	8a/	f	8r	.
=82	=82	=82	=82	=82	=82	=82	=82
16DD/LL	f	8.f#\L	.	8.ff#\L	.	[2aa\	f
16F#/	.	.	.	.	.	.	.
16AA/	.	.	.	.	.	.	.
16F#/JJ	.	32g\LL	.	32gg\LL	.	.	.
.	.	32f#\JJJ	.	32ff#\JJJ	.	.	.
16DD/LL	.	16e\LL	.	16ee\LL	.	.	.
16F#/	.	32f#\L	.	32ff#\L	.	.	.
.	.	32e\JJJ	.	32ee\JJJ	.	.	.
16AA/	.	16d\LL	.	16dd\LL	.	.	.
16F#/JJ	.	32e\L	.	32ee\L	.	.	.
.	.	32d\JJJ	.	32dd\JJJ	.	.	.
=83	=83	=83	=83	=83	=83	=83	=83
16EE/LL	.	16c#\LL	.	16cc#\LL	.	2aa\]	.
16G/	.	32d\L	.	32dd\L	.	.	.
.	.	32c#\JJJ	.	32cc#\JJJ	.	.	.
16DD/	.	16B/LL	.	16b\LL	.	.	.
16G/JJ	.	32c#/L	.	32cc#\L	.	.	.
.	.	32B/JJJ	.	32b\JJJ	.	.	.
16CC#/LL	.	4A/	.	4a/	.	.	.
(32G/L	.	.	.	.	.	.	.
32F#/	.	.	.	.	.	.	.
32E/	.	.	.	.	.	.	.
32D/	.	.	.	.	.	.	.
32C#/	.	.	.	.	.	.	.
32BB/JJJ)	.	.	.	.	.	.	.
=84	=84	=84	=84	=84	=84	=84	=84
16C#/LL	.	8.A/L	.	8.a/L	.	8..ggg\L	.
16AA/	.	.	.	.	.	.	.
16C#/	.	.	.	.	.	.	.
16AA/JJ	.	32G#/LL	.	32g#/LL	.	.	.
.	.	32A/JJJ	.	32a/JJJ	.	32ggg\Jkk	.
16D/LL	.	16B/LL	.	16b/LL	.	16fff#\LK	.
16AA/	.	32A/L	.	32a/L	.	32r	.
.	.	32B/JJJ	.	32b/JJJ	.	32fff#\Jkk	.
16G/	.	16c#/LL	.	16cc#\LL	.	16eee\LK	.
16AA/JJ	.	32B/L	.	32b\L	.	32r	.
.	.	32c#/JJJ	.	32cc#\JJJ	.	32eee\Jkk	.
=85	=85	=85	=85	=85	=85	=85	=85
16F#/LL	.	16d\LL	.	16dd\LL	.	16ddd\LK	.
16AA/	.	32c#\L	.	32cc#\L	.	32r	.
.	.	32d\JJJ	.	32dd\JJJ	.	32ddd\Jkk	.
16C#/	.	16e\LL	.	16ee\LL	.	16aa\LK	.
16AA/JJ	.	32d\L	.	32dd\L	.	32r	.
.	.	32e\JJJ	.	32ee\JJJ	.	32aa\Jkk	.
16D/LL	.	16f#\LL	.	16ff#\LL	.	8ff#\	.
16D/	.	32A\L	.	32a\L	.	.	.
.	.	32B\JJJ	.	32b\JJJ	.	.	.
16AA/	.	16c#\LL	.	16cc#\LL	.	8r	.
16FF#/JJ	.	32d\L	.	32dd\L	.	.	.
.	.	32e\JJJ	.	32ee\JJJ	.	.	.
=86	=86	=86	=86	=86	=86	=86	=86
16DD/LL	.	8.f#\L	.	8.ff#\L	.	[2aa\	.
16F#/	.	.	.	.	.	.	.
16AA/	.	.	.	.	.	.	.
16F#/JJ	.	32g\LL	.	32gg\LL	.	.	.
.	.	32f#\JJJ	.	32ff#\JJJ	.	.	.
16DD/LL	.	16e\LL	.	16ee\LL	.	.	.
16F#/	.	32f#\L	.	32ff#\L	.	.	.
.	.	32e\JJJ	.	32ee\JJJ	.	.	.
16AA/	.	16d\LL	.	16dd\LL	.	.	.
16F#/JJ	.	32e\L	.	32ee\L	.	.	.
.	.	32d\JJJ	.	32dd\JJJ	.	.	.
=87	=87	=87	=87	=87	=87	=87	=87
16DD#/LL	.	16cn\LL	.	16ccn\LL	.	2aa\]	.
16AA/	.	32d\L	.	32dd\L	.	.	.
.	.	32cn\JJJ	.	32ccn\JJJ	.	.	.
16DD#/	.	16B/LL	.	16b\LL	.	.	.
16AA/JJ	.	32cn/L	.	32ccn\L	.	.	.
.	.	32B/JJJ	.	32b\JJJ	.	.	.
16DD#/LL	.	[4A/	.	[4a/	.	.	.
16BB/	.	.	.	.	.	.	.
16DD#/	.	.	.	.	.	.	.
16Cn/JJ	.	.	.	.	.	.	.
=88	=88	=88	=88	=88	=88	=88	=88
16EE/LL	.	8A/L]	.	8a/L]	.	[2eee\	.
16BB/	.	.	.	.	.	.	.
16EE/	.	16.G#/L	.	16.g#/L	.	.	.
16BB/JJ	.	.	.	.	.	.	.
.	.	32F#/JJk	.	32f#/JJk	.	.	.
16EE/LL	.	8G#/L	.	8g#/L	.	.	.
16D/	.	.	.	.	.	.	.
16EE/	.	8B/J	.	8b/J	.	.	.
16D/JJ	.	.	.	.	.	.	.
=89	=89	=89	=89	=89	=89	=89	=89
*>L1	*>L1	*>L1	*>L1	*>L1	*>L1	*>L1	*>L1
.	.	(A#q\	.	(a#q\	.	.	.
.	.	Bq\	.	bq\)	.	.	.
.	.	c#q\	.	cc#q\	.	.	.
16AA/LL	.	4B/	.	4b\	.	16.eee\LL]	.
16D/	.	.	.	.	.	.	.
.	.	.	.	.	.	64ddd#\LL	.
.	.	.	.	.	.	64eee\JJ	.
16AA/	.	.	.	.	.	16ggg#\	.
16D/JJ	.	.	.	.	.	16eee\JJ	.
32AA/LLL	.	8A/L)	.	&(8a/L&)	.	8aaa\	.
(32C#/	.	.	.	.	.	.	.
32E/	.	.	.	.	.	.	.
32C#/	.	.	.	.	.	.	.
32AA/	.	8A/J	.	8a/J	.	8r	.
32GG/	.	.	.	.	.	.	.
32FF#/)	.	.	.	.	.	.	.
32EE/JJJ	.	.	.	.	.	.	.
=90:|!	=90:|!	=90:|!	=90:|!	=90:|!	=90:|!	=90:|!	=90:|!
*>L2	*>L2	*>L2	*>L2	*>L2	*>L2	*>L2	*>L2
.	.	(A#q\	.	(a#q\	.	.	.
.	.	Bq\	.	bq\)	.	.	.
.	.	c#q\	.	cc#q\	.	.	.
16AA/LL	.	4B/	.	4b\	.	16.eee\LL	.
16D/	.	.	.	.	.	.	.
.	.	.	.	.	.	64ddd#\LL	.
.	.	.	.	.	.	64eee\JJ	.
16AA/	.	.	.	.	.	16ggg#\	.
16D/JJ	.	.	.	.	.	16eee\JJ	.
32AA/LLL	.	8A/L)	.	8a/L	.	8aaa\	.
(32C#/	.	.	.	.	.	.	.
32E/	.	.	.	.	.	.	.
32D/	.	.	.	.	.	.	.
32C#/	.	8A/J	.	8a/J	.	8r	.
32BB/	.	.	.	.	.	.	.
32AA/	.	.	.	.	.	.	.
32GG/JJJ)	.	.	.	.	.	.	.
=91!|:	=91!|:	=91!|:	=91!|:	=91!|:	=91!|:	=91!|:	=91!|:
*>M	*>M	*>M	*>M	*>M	*>M	*>M	*>M
16FF#/LL	.	8.d\L	.	8.dd\L	.	[2dd\	.
16D/	.	.	.	.	.	.	.
16D/	.	.	.	.	.	.	.
16D/JJ	.	32c#\LL	.	32cc#\LL	.	.	.
.	.	32d\JJJ	.	32dd\JJJ	.	.	.
16C#/LL	.	16e\LL	.	16ee\LL	.	.	.
16D/	.	32d\L	.	32dd\L	.	.	.
.	.	32e\JJJ	.	32ee\JJJ	.	.	.
16Cn/	.	16f#\LL	.	16ff#\LL	.	.	.
16D/JJ	.	32e\L	.	32ee\L	.	.	.
.	.	32f#\JJJ	.	32ff#\JJJ	.	.	.
=92	=92	=92	=92	=92	=92	=92	=92
16BB/LL	.	16g\LL	.	16gg\LL	.	2dd\]	.
16D/	.	32g\L	.	32gg\L	.	.	.
.	.	32a\JJJ	.	32aa\JJJ	.	.	.
16GG/	.	16b\LL	.	16bb\LL	.	.	.
16D/JJ	.	32b\L	.	32bb\L	.	.	.
.	.	32cc#\JJJ	.	32ccc#\JJJ	.	.	.
(32FF#/LLL	.	8dd\	.	8ddd\	.	.	.
32DD/	.	.	.	.	.	.	.
32FF#/	.	.	.	.	.	.	.
32AA/JJJ	.	.	.	.	.	.	.
32D\LLL	.	8r	.	8r	.	.	.
32F#\	.	.	.	.	.	.	.
32A\	.	.	.	.	.	.	.
32G\JJJ)	.	.	.	.	.	.	.
=93	=93	=93	=93	=93	=93	=93	=93
16F#\LL	.	[2D/	.	8.d/L	.	8.dd\L	.
16d\	.	.	.	.	.	.	.
16d\	.	.	.	.	.	.	.
16d\JJ	.	.	.	32c#/LL	.	32cc#\LL	.
.	.	.	.	32d/JJJ	.	32dd\JJJ	.
16c#\LL	.	.	.	16e/LL	.	16ee\LL	.
16d\	.	.	.	32d/L	.	32dd\L	.
.	.	.	.	32e/JJJ	.	32ee\JJJ	.
16cn\	.	.	.	16f#/LL	.	16ff#\LL	.
16d\JJ	.	.	.	32e/L	.	32ee\L	.
.	.	.	.	32f#/JJJ	.	32ff#\JJJ	.
=94	=94	=94	=94	=94	=94	=94	=94
16B\LL	.	4D/_	.	16g/LL	.	16gg\LL	.
16d\	.	.	.	32g/L	.	32gg\L	.
.	.	.	.	32a/JJJ	.	32aa\JJJ	.
16G\	.	.	.	16b\LL	.	16bb\LL	.
16d\JJ	.	.	.	32b\L	.	32bb\L	.
.	.	.	.	32cc#\JJJ	.	32ccc#\JJJ	.
16F#/LL	.	16D/LL]	.	16dd\LL	.	16ddd\LK	.
16D/	.	32A/L	.	32a\L	.	16r	.
.	.	32B/JJJ	.	32b\JJJ	.	.	.
16AA/	.	16c#\LL	.	16cc#\LL	.	16r	.
16FF#/JJ	.	32d\L	.	32dd\L	.	16a\Jk	.
.	.	32e\JJJ	.	32ee\JJJ	.	.	.
=95	=95	=95	=95	=95	=95	=95	=95
16DD/LL	.	8.f#\L	.	8.ff#\L	.	[2aa\	.
16F#/	.	.	.	.	.	.	.
16AA/	.	.	.	.	.	.	.
16F#/JJ	.	32g\LL	.	32gg\LL	.	.	.
.	.	32f#\JJJ	.	32ff#\JJJ	.	.	.
16DD/LL	.	16e\LL	.	16ee\LL	.	.	.
16F#/	.	32f#\L	.	32ff#\L	.	.	.
.	.	32e\JJJ	.	32ee\JJJ	.	.	.
16AA/	.	16d\LL	.	16dd\LL	.	.	.
16F#/JJ	.	32e\L	.	32ee\L	.	.	.
.	.	32d\JJJ	.	32dd\JJJ	.	.	.
=96	=96	=96	=96	=96	=96	=96	=96
16EE/LL	.	16c#\LL	.	16cc#\LL	.	2aa\]	.
16G/	.	32d\L	.	32dd\L	.	.	.
.	.	32c#\JJJ	.	32cc#\JJJ	.	.	.
16DD/	.	16A/LL	.	16b\LL	.	.	.
16G/JJ	.	32c#/L	.	32cc#\L	.	.	.
.	.	32B/JJJ	.	32b\JJJ	.	.	.
16CC#/LL	.	4A/	.	4a/	.	.	.
(32G/L	.	.	.	.	.	.	.
32F#/	.	.	.	.	.	.	.
32E/	.	.	.	.	.	.	.
32D/	.	.	.	.	.	.	.
32C#/	.	.	.	.	.	.	.
32BB/JJJ)	.	.	.	.	.	.	.
=97	=97	=97	=97	=97	=97	=97	=97
.	.	.	.	.	.	gg#q\	.
.	.	.	.	.	.	aaq\	.
16C#\LL	.	8.A/L	.	8.a/L	.	8..ggg\L	.
16A\	.	.	.	.	.	.	.
16AA\	.	.	.	.	.	.	.
16A\JJ	.	32G#/LL	.	32g#/LL	.	.	.
.	.	32A/JJJ	.	32a/JJJ	.	32ggg\Jkk	.
16AA\LL	.	16B/LL	.	16b/LL	.	16fff#\LK	.
16A\	.	32A/L	.	32a/L	.	32r	.
.	.	32B/JJJ	.	32b/JJJ	.	32fff#\Jkk	.
16AA\	.	16c#/LL	.	16cc#\LL	.	16eee\LK	.
16G\JJ	.	32B/L	.	32b\L	.	32r	.
.	.	32c#/JJJ	.	32cc#\JJJ	.	32eee\Jkk	.
=98	=98	=98	=98	=98	=98	=98	=98
*>M1	*>M1	*>M1	*>M1	*>M1	*>M1	*>M1	*>M1
16DD/LL	.	32g\LLL	.	4ee\	.	4eee\	.
.	.	32f#\	.	.	.	.	.
16G/	.	32e\	.	.	.	.	.
.	.	32d\	.	.	.	.	.
16AA/	.	32c#\	.	.	.	.	.
.	.	32B\	.	.	.	.	.
16G/JJ	.	32c#\	.	.	.	.	.
.	.	32A\JJ	.	.	.	.	.
32DD/LLL	.	8d\	.	8dd\	.	8ddd\	.
(32F#/	.	.	.	.	.	.	.
32E/	.	.	.	.	.	.	.
32D/	.	.	.	.	.	.	.
32C#/	.	8A\J	.	8a/	.	8r	.
32BB/	.	.	.	.	.	.	.
32AA/	.	.	.	.	.	.	.
32GG/JJJ)	.	.	.	.	.	.	.
=99:|!	=99:|!	=99:|!	=99:|!	=99:|!	=99:|!	=99:|!	=99:|!
*>M2	*>M2	*>M2	*>M2	*>M2	*>M2	*>M2	*>M2
16BB-\LL	p	8d\	.	8dd\	.	8ddd\	.
16Fn\	>	.	.	.	.	.	.
16D\	.	8r	.	8r	.	8r	.
16Fn\JJ	.	.	.	.	.	.	.
16BB-\LL	.	4r	.	4r	.	4r	.
16Fn\	.	.	.	.	.	.	.
16D\	.	.	.	.	.	.	.
16Fn\JJ	.	.	.	.	.	.	.
=100	=100	=100	=100	=100	=100	=100	=100
16BB-\LL	.	2r	.	2r	.	2r	.
16Fn\	.	.	.	.	.	.	.
16D\	.	.	.	.	.	.	.
16Fn\JJ	.	.	.	.	.	.	.
16BB-\LL	.	.	.	.	.	.	.
16Fn\	.	.	.	.	.	.	.
16D\	.	.	.	.	.	.	.
16Fn\JJ	.	.	.	.	.	.	.
=101	=101	=101	=101	=101	=101	=101	=101
8BB-/	pp	16r	.	4dd\	pp	16r	.
.	.	16Fn/LL	pp	.	.	16fn/LL	pp
8r	.	16G/	.	.	.	16fn/	.
.	.	16A/JJ	.	.	.	16fn/JJ	.
4r	.	16B-\LL	.	8ccn\L	.	16fn/LL	.
.	.	16cn\J	.	.	.	16fn/	.
.	.	8d\J	.	8b-\J	.	16fn/	.
.	.	.	.	.	.	16fn/JJ	.
=102	=102	=102	=102	=102	=102	=102	=102
8FFn/	.	16r	.	8a/L	.	16fn\LL	.
.	.	16e-\LL	.	.	.	16ffn\	.
8r	.	16cn\	.	8g/J	.	16ffn\	.
.	.	16B-\JJ	.	.	.	16ffn\JJ	.
4r	.	16A/LL	.	4fn/	.	16ffn\LL	.
.	.	16G/J	.	.	.	16ccn\	.
.	.	8Fn/J	.	.	.	16ffn\	.
.	.	.	.	.	.	16ee-\JJ	.
=103	=103	=103	=103	=103	=103	=103	=103
8BB-/	.	16r	.	4dd\	.	16dd/LL	.
.	.	16Fn/LL	.	.	.	16fn/	.
8r	.	16G/	.	.	.	16fn/	.
.	.	16A/JJ	.	.	.	16fn/JJ	.
4r	.	16B-\LL	.	8dd\L	.	16fn/LL	.
.	.	16cn\	.	.	.	16fn/	.
.	.	16d\	.	8b-\J	.	16fn/	.
.	.	16e\JJ	.	.	.	16fn/JJ	.
=104	=104	=104	=104	=104	=104	=104	=104
8FFn/	<	8fn\L	<	4a/	<	16cn/	<
.	.	.	.	.	.	16ccn\LL	<
8r	<	8f\J	<	.	.	16dd\	.
.	.	.	.	.	.	16ee\JJ	.
4r	.	[4f\	.	4a-/	<	16ff#\LL	.
.	.	.	.	.	.	16ee-\	.
.	.	.	.	.	.	16dd\	.
.	.	.	.	.	.	16ccn\JJ	.
=105	=105	=105	=105	=105	=105	=105	=105
8GG/	p	16f\LL]	p	[4g/	p	16b\LL	p
.	.	16f#\	.	.	.	16b\	.
8r	.	16e-\	.	.	.	16ccn\	.
.	.	16B\JJ	.	.	.	16dd\JJ	.
8CCn/	.	[4cn\	.	16g/LL]	.	[4ee-\	.
.	.	.	.	16a/	.	.	.
8r	.	.	.	16b/	.	.	.
.	.	.	.	16ccn/JJ	.	.	.
=106	=106	=106	=106	=106	=106	=106	=106
8Fn\	.	16c\LL]	.	[4fn/	.	16ee-\LL]	.
.	.	16e-\	.	.	.	16a\	.
8r	.	16d\	.	.	.	16b-\	.
.	.	16A\JJ	.	.	.	16ccn\JJ	.
8BB-/	.	[4B-/	.	16f/LL]	.	4dd\	.
.	.	.	.	16g/	.	.	.
8r	.	.	.	16a/	.	.	.
.	.	.	.	16b-/JJ	.	.	.
=107	=107	=107	=107	=107	=107	=107	=107
4.BB-/	<	8B-/L]	<	16d/LL	<	8b-/L	<
.	.	.	.	16dd/	<	.	.
.	.	8D/	<	16dd/	.	8a/J	<
.	.	.	.	16dd/JJ	.	.	.
.	.	8d/	.	16dd\LL	.	4g#/	.
.	.	.	.	16dd\	.	.	.
8BB-/	<	8d/J	.	16ee\	.	.	.
.	.	.	.	16dd\JJ	.	.	.
=108	=108	=108	=108	=108	=108	=108	=108
(8AA/	.	8e\L	.	16cc#/LL	.	8a/	.
.	.	.	.	16A/	.	.	.
4A\	.	16r	.	16c#/	.	8r	.
.	.	16A\Jk	.	16A/JJ	.	.	.
.	.	16B/LL	.	16d/LL	.	4r	.
.	.	16A/	.	16A/	.	.	.
8G\)	.	16c#/	.	16e/	.	.	.
.	.	16A/JJ	.	16A/JJ	.	.	.
=109	=109	=109	=109	=109	=109	=109	=109
4F#\	pp	16d\LL	pp	16f#/LL	pp	16r	.
.	.	16d\	.	16A/ 16f#/	.	16a\LL	pp
.	.	16d\	.	16A/ 16f#/	.	16b\	.
.	.	16d\JJ	.	16A/JJ 16f#/	.	16cc#\JJ	.
(8E\L	.	16d\LL	.	16A/LL 16f#/	.	16dd\LL	.
.	.	16d\	.	16A/ 16f#/	.	16ee\J	.
8D\J)	.	16d\	.	16A/ 16f#/	.	8ff#\J	.
.	.	16d\JJ	.	16A/JJ 16f#/	.	.	.
=110	=110	=110	=110	=110	=110	=110	=110
(8C#/L	.	16e\LL	.	16A/LL 16g/	.	16r	.
.	.	16e\	.	16A/ 16g/	.	16gg\LL	.
8BB/J)	.	16e\	.	16A/ 16g/	.	16ee\	.
.	.	16e\JJ	.	16A/JJ 16g/	.	16dd\JJ	.
4AA/	.	16e\LL	.	16A/LL 16g/	.	16cc#\LL	.
.	.	16e\	.	16A/ 16g/	.	16b\J	.
.	.	16e\	.	16A/ 16g/	.	[8a\J	.
.	.	16e\JJ	.	16A/JJ 16g/	.	.	.
=111	=111	=111	=111	=111	=111	=111	=111
4F#\	.	16d\LL	.	16A/LL 16f#/	.	16a/LL]	.
.	.	16d\	.	16A/ 16f#/	.	16a/	.
.	.	16d\	.	16A/ 16f#/	.	16b/	.
.	.	16d\JJ	.	16A/JJ 16f#/	.	16cc#/JJ	.
(8E\L	.	16d\LL	.	16A/LL 16f#/	.	16dd\LL	.
.	.	16d\	.	16A/ 16f#/	.	16ee\	.
8D\J)	.	16d\	.	16A/ 16f#/	.	16ff#\	.
.	.	16d\JJ	.	16A/JJ 16f#/	.	16gg#\JJ	.
=112	=112	=112	=112	=112	=112	=112	=112
(8C#/L	.	16c#\LL	.	16A/LL 16e/	.	8aa\L	.
.	.	16c#\	.	16A/ 16e/	.	.	.
8BB/J)	.	16c#\	.	16A/ 16e/	.	8aa\J	.
.	.	16c#\JJ	.	16A/JJ 16e/	.	.	.
[4AA/	.	16c#\LL	.	16A/LL 16e/	.	4aa\	.
.	.	16c#\	.	16A/ 16e/	.	.	.
.	.	16c#\	.	16A/ 16e/	.	.	.
.	.	16c#\JJ	.	16A/JJ 16e/	.	.	.
=113	=113	=113	=113	=113	=113	=113	=113
16AA/LL]	.	16A\LL	.	16A/LL	.	4fff#\	.
16AA/	.	16f#\	.	16dd/	.	.	.
16BB/	.	16f#\	.	16dd/	.	.	.
16C#/JJ	.	16f#\JJ	.	16dd/JJ	.	.	.
16D\LL	.	16A\LL	.	16A/LL	.	8eee\L	.
16E\J	.	16f#\	.	16dd/	.	.	.
8F#\J	.	16f#\	.	16dd/	.	8ddd\J	.
.	.	16f#\JJ	.	16dd/JJ	.	.	.
=114	=114	=114	=114	=114	=114	=114	=114
16r	.	16A\LL	.	16A/LL	.	8ccc#\L	.
16G\LL	.	16e\	.	16cc#/	.	.	.
16E\	.	16A\	.	16A/	.	8bb\J	.
16D\JJ	.	16g\JJ	.	16ee/JJ	.	.	.
16C#/LL	.	16A\LL	.	16A/LL	.	4aa\	.
16BB/J	.	16g\	.	16ee/	.	.	.
8AA/J	.	16A\	.	16A/	.	.	.
.	.	16g\JJ	.	16ee/JJ	.	.	.
=115	=115	=115	=115	=115	=115	=115	=115
16r	.	16A\LL	.	16A/LL	.	4fff#\	.
16AA/LL	.	16f#\	.	16dd/	.	.	.
16BB/	.	16f#\	.	16dd/	.	.	.
16C#/JJ	.	16f#\JJ	.	16dd/JJ	.	.	.
16D\LL	.	16A\LL	.	16A/LL	.	8eee\L	.
16E\	.	16f#\	.	16dd/	.	.	.
16F#\	.	16f#\	.	16dd/	.	8ddd\J	.
16G#\JJ	.	16f#\JJ	.	16dd/JJ	.	.	.
=116	=116	=116	=116	=116	=116	=116	=116
8A\L	<	16A\LL	<	16A/LL	<	8ccc#\L	<
.	.	16e\	<	16cc#/	<	.	.
8A\J	<	16e\	.	16cc#/	.	8bb\J	<
.	.	16e\JJ	.	16cc#/JJ	.	.	.
[4A\	.	16e\LL	.	16ccn\LL	.	4aa\	.
.	.	16e\	.	16ccn\	.	.	.
.	.	16e\	.	16ccn\	.	.	.
.	.	16e\JJ	.	16ccn\JJ	.	.	.
=117	=117	=117	=117	=117	=117	=117	=117
16A\LL]	p	16d#\LL	p	16b\LL	p	[4bb\	p
16A\	.	16d#\	.	16ff#\	.	.	.
16G\	.	16e\	.	16gg\	.	.	.
16D#\JJ	.	16f#\JJ	.	16aa\JJ	.	.	.
[4E\	.	[4e\	.	[4gg\	.	16bb\LL]	.
.	.	.	.	.	.	16ccc#\	.
.	.	.	.	.	.	16ddd#\	.
.	.	.	.	.	.	16eee\JJ	.
=118	=118	=118	=118	=118	=118	=118	=118
16E\LL]	.	16e\LL]	.	16gg\LL]	.	[4aa\	.
16G\	.	16c#\	.	16ee\	.	.	.
16F#\	.	16d\	.	16ff#\	.	.	.
16C#\JJ	.	16e\JJ	.	16gg\JJ	.	.	.
4D\	.	4d\	.	4ff#\	.	16aa\LL]	.
.	.	.	.	.	.	16bb\	.
.	.	.	.	.	.	16ccc#\	.
.	.	.	.	.	.	16ddd#\JJ	.
=119	=119	=119	=119	=119	=119	=119	=119
2GG/	.	4B/	.	16r	.	[2dd\ [2ddd\	.
.	.	.	.	16d/LL	.	.	.
.	.	.	.	16e/	.	.	.
.	.	.	.	16f#/JJ	.	.	.
.	.	8A/L	.	16g/LL	.	.	.
.	.	.	.	16a/J	.	.	.
.	.	8G/J	.	8b/J	.	.	.
=120	=120	=120	=120	=120	=120	=120	=120
2DD/	.	8F#/L	.	16r	.	2dd\_ 2ddd\_	.
.	.	.	.	16ccn/LL	.	.	.
.	.	8E/J	.	16a/	.	.	.
.	.	.	.	16g/JJ	.	.	.
.	.	4D/	.	16f#/LL	.	.	.
.	.	.	.	16e/J	.	.	.
.	.	.	.	8d/J	.	.	.
=121	=121	=121	=121	=121	=121	=121	=121
2GG/	.	4B/	.	16r	.	2dd\_ 2ddd\_	.
.	.	.	.	16d/LL	.	.	.
.	.	.	.	16e/	.	.	.
.	.	.	.	16f#/JJ	.	.	.
.	.	8A/L	.	16g/LL	.	.	.
.	.	.	.	16a/	.	.	.
.	.	8G/J	.	16b/	.	.	.
.	.	.	.	16cc#/JJ	.	.	.
=122	=122	=122	=122	=122	=122	=122	=122
(8DD/L	<	8F#/L	<	8dd\L	<	16dd\LL] 16ddd\]	<
.	.	.	.	.	.	16ccc#\	<
8EE/J)	<	8E/J	<	8dd\J	<	16ddd\	.
.	.	.	.	.	.	16eee\JJ	.
4FFn/	.	4D/	.	[4dd\	.	16ddd\LL	.
.	.	.	.	.	.	16cccn\	.
.	.	.	.	.	.	16bb\	.
.	.	.	.	.	.	16aa\JJ	.
=123	=123	=123	=123	=123	=123	=123	=123
8EE/	p	[4E/	p	16dd\LL]	p	16gg#\LL	p
.	.	.	.	16dd\	.	16gg#\	.
8r	.	.	.	16ccn\	.	16aa\	.
.	.	.	.	16g#\JJ	.	16bb\JJ	.
8AA/	.	16E/LL]	.	[4a/	.	[4cccn\	.
.	.	16F#/	.	.	.	.	.
8r	.	16G#/	.	.	.	.	.
.	.	16A/JJ	.	.	.	.	.
=124	=124	=124	=124	=124	=124	=124	=124
8DD/	.	[4D/	.	16a/LL]	.	16ccc\LL]	.
.	.	.	.	16ccn/	.	16ff#\	.
8r	.	.	.	16b/	.	16gg\	.
.	.	.	.	16f#/JJ	.	16aa\JJ	.
8GG/	.	16D/LL]	.	4g/	.	4bb\	.
.	.	16E/	.	.	.	.	.
8r	.	16F#/	.	.	.	.	.
.	.	16G/JJ	.	.	.	.	.
=125	=125	=125	=125	=125	=125	=125	=125
[4BB/	.	16r	.	16r	.	16r	.
.	.	16d#\LL	.	16fn/LL	.	16aa\LL	.
.	.	16e\	.	16d/	.	16gg\	.
.	.	16f#\JJ	.	16A/JJ	.	16dd#\JJ	.
16BB/LL]	.	[4e\	.	[4g/	.	[4ee\	.
16C#/	.	.	.	.	.	.	.
16D#/	.	.	.	.	.	.	.
16E/JJ	.	.	.	.	.	.	.
=126	=126	=126	=126	=126	=126	=126	=126
[4AA/	.	16e\LL]	.	16g/LL]	.	16ee\LL]	.
.	.	16c#\	.	16e/	.	16gg\	.
.	.	16d\	.	16f#/	.	16ff#\	.
.	.	16e\JJ	.	16g/JJ	.	16cc#\JJ	.
16AA/LL]	.	4d\	.	[4f#/	.	8dd\	.
16BB/	.	.	.	.	.	.	.
16C#/	.	.	.	.	.	8r	.
16D/JJ	.	.	.	.	.	.	.
=127	=127	=127	=127	=127	=127	=127	=127
8AA\L	<	16d#\LL	<	16f#\LL]	<	[4bb\	<
.	.	16a\	.	16dd#\	<	.	.
8.A\	<	16g\	.	16ee\	.	.	.
.	.	16d#\JJ	.	16ff#\JJ	.	.	.
.	.	[4e\	.	[4gg\	.	16bb\LL]	<
16A\L	.	.	.	.	.	16ccc#\	.
16A\	.	.	.	.	.	16ddd#\	.
16A\JJ	.	.	.	.	.	16eee\JJ	.
=128	=128	=128	=128	=128	=128	=128	=128
8AA\LK	.	16e\LL]	.	16gg\LL]	.	[4aa\	.
.	.	16g\	.	16cc#\	.	.	.
8.A\J	.	16f#\	.	16dd\	.	.	.
.	.	16c#\JJ	.	16ee\JJ	.	.	.
.	.	[4d\	.	[4ff#\	.	16aa\LL]	.
16A\LL	.	.	.	.	.	16bb\	.
16A\	.	.	.	.	.	16ccc#\	.
16A\JJ	.	.	.	.	.	16ddd\JJ	.
=129	=129	=129	=129	=129	=129	=129	=129
16AA\LK	.	16d/LL]	.	16ff#\LL]	.	16gg\LL	.
8.A\J	.	16c#/	.	16ee\	.	16aa\	.
.	.	16B/	.	16dd\	.	16bb\	.
.	.	16A/JJ	.	16cc#\JJ	.	16ccc#\JJ	.
16AA\LK	.	16c#/LL	.	16ee\LL	.	16ff#\LL	.
8.A\J	.	16B/	.	16dd\	.	16gg\	.
.	.	16A/	.	16cc#\	.	16aa\	.
.	.	16G/JJ	.	16b\JJ	.	16bb\JJ	.
=130	=130	=130	=130	=130	=130	=130	=130
16AA\LK	.	16B/LL	.	16dd\LL	.	16ee\LL	.
[8.A\J	.	16A/	.	16cc#\	.	16ff#\	.
.	.	16G/	.	16b\	.	16gg\	.
.	.	16F#/JJ	.	16a\JJ	.	16aa\JJ	.
16A\LL]	.	16A/LL	.	16cc#/LL	.	16dd\LL	.
16AA\	.	16G/	.	16b/	.	16ee\	.
16A\	.	16F#/	.	16a/	.	16ff#\	.
16AA\JJ	.	16E/JJ	.	16g/JJ	.	16gg\JJ	.
=131	=131	=131	=131	=131	=131	=131	=131
4AA/	f	4E/	f	4c#/	f	4gg\	f
4BB-/	f	4D/	f	4d/	f	4ffn\	f
=132	=132	=132	=132	=132	=132	=132	=132
4GG#/	f	4B/	f	4d/	f	4ee\	f
4AA/	f	4G/	f	4c#/	f	8.e/L	f
.	.	.	.	.	.	16a/Jk	>
=133	=133	=133	=133	=133	=133	=133	=133
*MM48	*MM48	*MM48	*MM48	*MM48	*MM48	*MM48	*MM48
2r	>	2r	>	2r	>	4ff#\	pp
.	.	.	.	.	.	8ee\L	.
.	.	.	.	.	.	8dd\J	.
=134	=134	=134	=134	=134	=134	=134	=134
2r	.	2r	.	2r	.	8cc#\L	.
.	.	.	.	.	.	8b\J	.
.	.	.	.	.	.	4a/	.
=135	=135	=135	=135	=135	=135	=135	=135
2r	.	2r	.	4a/	pp	8r	.
.	.	.	.	.	.	16cc#\LK	.
.	.	.	.	.	.	32r	.
.	.	.	.	.	.	32a\Jkk	.
.	.	.	.	8g#/L	.	16b/LK	.
.	.	.	.	.	.	32r	.
.	.	.	.	.	.	32a/Jkk	.
.	.	.	.	8g/J	.	16cc#\LK	.
.	.	.	.	.	.	32r	.
.	.	.	.	.	.	32a\Jkk	.
=136	=136	=136	=136	=136	=136	=136	=136
2r	.	2r	.	8f#/L	.	16dd\LK	.
.	.	.	.	.	.	32r	.
.	.	.	.	.	.	32a\Jkk	.
.	.	.	.	8e/J	.	16ee\LK	.
.	.	.	.	.	.	32r	.
.	.	.	.	.	.	32a\Jkk	.
.	.	.	.	16d/LL	.	8ff#\	.
.	.	.	.	16e/	.	.	.
.	.	.	.	16f#/	.	8r	.
.	.	.	.	16g/JJ	.	.	.
=137	=137	=137	=137	=137	=137	=137	=137
(4F#\	pp	4a\	pp	[2a/	pp	2r	.
8E\L	.	8g\L	.	.	.	.	.
8D\J	.	8f#\J	.	.	.	.	.
=138	=138	=138	=138	=138	=138	=138	=138
8C#/L	.	8e\L	.	16a\LL]	.	[4ggg\	pp
.	.	.	.	16b\	.	.	.
8BB/J	.	8d\J	.	16cc#\	.	.	.
.	.	.	.	16dd\JJ	.	.	.
[4AA/)	<	[4c#\	<	16ee\LL	<	16ggg\LL]	<
.	.	.	.	16ff#\J	.	16fff#\	.
.	.	.	.	8gg\J	.	16eee\	.
.	.	.	.	.	.	16ddd\JJ	.
=139	=139	=139	=139	=139	=139	=139	=139
2AA/]	.	4c#\]	.	4ff#\	.	16ccc#\LL	.
.	.	.	.	.	.	16bb\	.
.	.	.	.	.	.	16aa\	<
.	.	.	.	.	.	16gg\JJ	.
.	.	[4E/	.	[4e/	.	16ff#\LL	.
.	.	.	.	.	.	16ee\	.
.	.	.	.	.	.	16dd\	.
.	.	.	.	.	.	16cc#\JJ	.
=140	=140	=140	=140	=140	=140	=140	=140
8AA/L	<	8E/L]	<	8e/L]	<	16b/LL	.
.	.	.	.	.	.	16a/	>
8AA/J	.	8G/J	>	8e/J	>	16g#/	.
.	.	.	.	.	.	16a/JJ	.
8AA/L	.	8G/L	.	8e/L	.	16b-\LL	.
.	.	.	.	.	.	16b\	.
8AA/J	.	8G/J	.	8e/J	.	16ccn\	.
.	.	.	.	.	.	16cc#\JJ	.
=141	=141	=141	=141	=141	=141	=141	=141
8D\L	.	8F#/L	.	8f#/L	.	8dd\L	.
16.r	.	16.r	.	16.r	.	16.r	.
32D\Jkk	.	32F#/Jkk	.	32d/Jkk	.	32a\Jkk	.
8D/L	.	8F#/L	.	8d/L	.	8a/L	.
16.r	.	16.r	.	16.r	.	16.r	.
32DD/Jkk	pp	32A/Jkk	pp	32d/Jkk	pp	32f#/Jkk	pp
=142	=142	=142	=142	=142	=142	=142	=142
2DD/	.	2A/	.	2d/	.	2f#/	.
==	==	==	==	==	==	==	==
*-	*-	*-	*-	*-	*-	*-	*-
!!!ENC: Craig Stuart Sapp
!!!END: 2005/12/08/
